app/dist/common/images/shenzhen-kstar-sci.svg

<svg height="18" viewBox="0 0 18 18" width="18" xmlns="http://www.w3.org/2000/svg"><path d="m0 0h18v18h-18z" fill="#f0f3fa"/><path d="m6.3 5h2.11l-.61 3.8 3.4-3.8h1.8l-3.06 3.41h.02l2.04 4.59h-2.6l-1.7-3.63-.42 2.57c-.1.62-.55 1.06-1.07 1.06h-1.21z" fill="#2a3898"/></svg>

<!-- by TradingView --><svg width="18" height="18" viewBox="0 0 18 18" xmlns="http://www.w3.org/2000/svg"><path fill="#F0F3FA" d="M0 0h18v18H0z"/><path d="M6.3 5h2.11L7.8 8.8 11.2 5H13L9.94 8.41h.02L12 13H9.4L7.7 9.37l-.42 2.57c-.1.62-.55 1.06-1.07 1.06H5l1.3-8Z" fill="#2A3898"/></svg>
